picto/bike-hire-left-it.svg

<svg class="color-immutable" width="24" height="24" viewBox="0 0 24 24" fill="none" xmlns="http://www.w3.org/2000/svg"><path d="M0 22.5V1.5C0 0.675 0.675 0 1.5 0H22.5C23.325 0 24 0.675 24 1.5V22.5C24 23.325 23.325 24 22.5 24H1.5C0.675 24 0 23.325 0 22.5Z" fill="#2D327D"/><path d="M4.901 3V5.249H4.407L3.466 3.717L3.472 5.249H3V3H3.5L4.435 4.529L4.429 3H4.901Z" fill="white"/><path d="M6.10701 3.52299C6.35101 3.52299 6.55001 3.604 6.70501 3.766C6.85801 3.926 6.93401 4.139 6.93401 4.406C6.93401 4.682 6.85201 4.90199 6.68901 5.06599C6.53701 5.21799 6.33801 5.295 6.09301 5.295C5.83201 5.295 5.62301 5.20999 5.46901 5.03999C5.32101 4.87699 5.24701 4.66699 5.24701 4.40899C5.24701 4.15499 5.31901 3.948 5.46201 3.789C5.62101 3.612 5.83601 3.52299 6.10701 3.52299ZM6.08401 3.871C5.96601 3.871 5.87201 3.91899 5.80301 4.01399C5.73201 4.10999 5.69601 4.24199 5.69601 4.40899C5.69601 4.58199 5.73101 4.715 5.80101 4.807C5.87301 4.9 5.97101 4.947 6.09501 4.947C6.21101 4.947 6.30301 4.90399 6.37001 4.81899C6.44701 4.72499 6.48501 4.588 6.48501 4.40799C6.48501 4.24 6.45101 4.10899 6.38301 4.01599C6.31301 3.91899 6.21301 3.871 6.08401 3.871Z" fill="white"/><path d="M7.68202 3V5.249H7.23602V3H7.68202Z" fill="white"/><path d="M9.55399 4.726C9.52999 4.82 9.48799 4.909 9.42599 4.992C9.27799 5.194 9.06599 5.295 8.78899 5.295C8.53899 5.295 8.33799 5.216 8.18799 5.058C8.11399 4.981 8.05799 4.888 8.01899 4.78C7.97699 4.664 7.95599 4.543 7.95599 4.417C7.95599 4.173 8.02599 3.968 8.16699 3.802C8.32399 3.616 8.52699 3.524 8.77599 3.524C8.97699 3.524 9.14799 3.586 9.28999 3.71C9.39199 3.799 9.46499 3.909 9.51099 4.04C9.55699 4.17 9.57999 4.334 9.57999 4.532H8.40999C8.41399 4.614 8.42699 4.682 8.44799 4.737C8.50799 4.884 8.62299 4.957 8.79299 4.957C8.87599 4.957 8.94399 4.939 8.99599 4.902C9.04799 4.866 9.09099 4.807 9.12499 4.726H9.55399ZM9.12499 4.232C9.11599 4.151 9.09799 4.084 9.06899 4.031C9.04099 3.978 8.99999 3.937 8.94699 3.906C8.89399 3.875 8.83699 3.86 8.77399 3.86C8.67499 3.86 8.59299 3.893 8.52799 3.96C8.46299 4.026 8.42499 4.117 8.41299 4.232H9.12499Z" fill="white"/><path d="M11.423 3.569V5.049C11.423 5.18 11.415 5.285 11.398 5.364C11.382 5.442 11.353 5.514 11.313 5.579C11.184 5.784 10.952 5.887 10.618 5.887C10.152 5.887 9.89799 5.711 9.85399 5.359H10.303C10.334 5.499 10.442 5.57 10.628 5.57C10.77 5.57 10.868 5.53 10.925 5.45C10.969 5.386 10.991 5.284 10.991 5.142L10.993 4.934C10.878 5.11 10.712 5.199 10.495 5.199C10.285 5.199 10.117 5.125 9.99199 4.978C9.86299 4.827 9.79999 4.625 9.79999 4.37C9.79999 4.116 9.86399 3.912 9.99099 3.758C10.123 3.599 10.297 3.52 10.512 3.52C10.624 3.52 10.717 3.541 10.792 3.583C10.867 3.625 10.936 3.695 10.998 3.794V3.569H11.423ZM10.612 3.886C10.487 3.886 10.392 3.938 10.327 4.043C10.275 4.127 10.249 4.234 10.249 4.363C10.249 4.527 10.287 4.652 10.363 4.737C10.429 4.813 10.514 4.851 10.62 4.851C10.753 4.851 10.853 4.795 10.92 4.683C10.971 4.597 10.997 4.488 10.997 4.357C10.997 4.199 10.958 4.077 10.879 3.991C10.813 3.921 10.725 3.886 10.612 3.886Z" fill="white"/><path d="M13.353 3.569V5.049C13.353 5.18 13.345 5.285 13.328 5.364C13.312 5.442 13.283 5.514 13.243 5.579C13.114 5.784 12.882 5.887 12.548 5.887C12.082 5.887 11.828 5.711 11.784 5.359H12.233C12.264 5.499 12.372 5.57 12.558 5.57C12.7 5.57 12.798 5.53 12.855 5.45C12.899 5.386 12.921 5.284 12.921 5.142L12.923 4.934C12.808 5.11 12.642 5.199 12.425 5.199C12.215 5.199 12.047 5.125 11.922 4.978C11.795 4.828 11.731 4.626 11.731 4.372C11.731 4.118 11.795 3.914 11.922 3.76C12.054 3.601 12.228 3.522 12.443 3.522C12.555 3.522 12.648 3.543 12.723 3.585C12.798 3.627 12.867 3.697 12.929 3.796V3.569H13.353ZM12.542 3.886C12.417 3.886 12.322 3.938 12.257 4.043C12.205 4.127 12.179 4.234 12.179 4.363C12.179 4.527 12.217 4.652 12.293 4.737C12.359 4.813 12.444 4.851 12.55 4.851C12.683 4.851 12.783 4.795 12.85 4.683C12.901 4.597 12.927 4.488 12.927 4.357C12.927 4.199 12.888 4.077 12.809 3.991C12.744 3.921 12.655 3.886 12.542 3.886Z" fill="white"/><path d="M14.167 3V3.401H13.72V3H14.167ZM14.167 3.572V5.249H13.72V3.572H14.167Z" fill="white"/><path d="M15.328 3.52299C15.572 3.52299 15.771 3.604 15.926 3.766C16.079 3.926 16.155 4.139 16.155 4.406C16.155 4.682 16.073 4.90199 15.91 5.06599C15.757 5.21899 15.558 5.295 15.313 5.295C15.052 5.295 14.843 5.20999 14.689 5.03999C14.541 4.878 14.468 4.66799 14.468 4.40899C14.468 4.15499 14.54 3.948 14.683 3.789C14.842 3.612 15.057 3.52299 15.328 3.52299ZM15.305 3.871C15.187 3.871 15.093 3.91899 15.024 4.01399C14.953 4.10999 14.918 4.24199 14.918 4.40899C14.918 4.58199 14.953 4.715 15.023 4.807C15.095 4.9 15.193 4.947 15.317 4.947C15.433 4.947 15.525 4.90399 15.592 4.81899C15.669 4.72499 15.707 4.588 15.707 4.40799C15.707 4.24 15.673 4.10899 15.605 4.01599C15.534 3.91899 15.434 3.871 15.305 3.871Z" fill="white"/><path d="M13.985 11.795L15.796 12.428C15.835 12.443 15.878 12.449 15.92 12.449C16.045 12.449 16.161 12.387 16.231 12.283L16.638 11.679C16.671 11.629 16.688 11.57 16.688 11.512C16.688 11.346 16.554 11.211 16.389 11.211H14.085C13.919 11.211 13.784 11.346 13.784 11.512C13.783 11.64 13.865 11.754 13.985 11.795Z" fill="white"/><path d="M7.64898 11.812H10.275V11.212H7.64898C7.48398 11.212 7.34998 11.346 7.34998 11.512C7.34998 11.678 7.48398 11.812 7.64898 11.812Z" fill="white"/><path d="M7.65001 12.788H8.02501C8.19001 12.788 8.32501 12.653 8.32501 12.488C8.32501 12.322 8.19001 12.187 8.02501 12.187H7.65001C7.48501 12.187 7.35101 12.322 7.35101 12.488C7.35101 12.653 7.48501 12.788 7.65001 12.788Z" fill="white"/><path d="M17.325 13.649C16.741 13.649 16.164 13.788 15.644 14.056L14.924 12.9H9.074L8.354 14.056C7.835 13.789 7.259 13.649 6.674 13.649C4.646 13.649 3 15.295 3 17.325C3 19.353 4.646 21 6.675 21C8.703 21 10.349 19.353 10.349 17.325C10.349 16.161 9.799 15.067 8.864 14.373L9.267 13.725L11.233 16.648C11.097 16.82 11.024 17.031 11.024 17.25C11.024 17.788 11.461 18.225 11.998 18.225C12.377 18.225 12.722 18.005 12.882 17.662H13.664C13.839 19.553 15.426 21 17.325 21C19.354 21 21 19.353 21 17.325C21 15.295 19.354 13.649 17.325 13.649ZM9.75 17.325C9.75 19.022 8.372 20.4 6.675 20.4C4.978 20.4 3.599 19.022 3.599 17.325C3.599 15.627 4.977 14.25 6.675 14.25C7.148 14.25 7.613 14.359 8.037 14.568L6.42 17.167C6.391 17.214 6.376 17.269 6.376 17.326C6.376 17.491 6.51 17.626 6.676 17.626C6.78 17.626 6.876 17.572 6.93 17.484L8.547 14.886C9.305 15.467 9.75 16.369 9.75 17.325ZM12.268 16.312C12.181 16.287 12.09 16.275 11.999 16.275C11.909 16.275 11.819 16.287 11.732 16.312L9.84 13.5H14.16L12.268 16.312ZM13.659 17.062H12.957C12.927 16.911 12.862 16.768 12.767 16.647L14.732 13.724L15.136 14.372C14.275 15.011 13.736 15.994 13.659 17.062ZM15.453 14.885L16.808 17.062H14.261C14.334 16.201 14.767 15.411 15.453 14.885ZM17.325 20.4C15.757 20.4 14.44 19.22 14.268 17.662H16.829C16.941 17.826 17.126 17.925 17.325 17.925C17.656 17.925 17.924 17.656 17.924 17.325C17.924 16.994 17.656 16.724 17.325 16.724C17.319 16.724 17.311 16.724 17.306 16.725L15.963 14.567C16.386 14.358 16.853 14.249 17.326 14.249C19.023 14.249 20.4 15.626 20.4 17.324C20.399 19.022 19.022 20.4 17.325 20.4Z" fill="white"/></svg>

<svg class="color-immutable" width="24" height="24" viewBox="0 0 24 24" fill="none" xmlns="http://www.w3.org/2000/svg"><g clip-path="url(#a)"><path d="M0 22.5v-21C0 .675.675 0 1.5 0h21c.825 0 1.5.675 1.5 1.5v21c0 .825-.675 1.5-1.5 1.5h-21C.675 24 0 23.325 0 22.5Z" fill="#2D327D"/><path d="M4.901 3v2.249h-.494l-.941-1.532.006 1.532H3V3h.5l.935 1.529L4.429 3h.472ZM6.107 3.523a.79.79 0 0 1 .598.243c.153.16.229.373.229.64 0 .276-.082.496-.245.66a.807.807 0 0 1-.596.229c-.261 0-.47-.085-.624-.255-.148-.163-.222-.373-.222-.631 0-.254.072-.461.215-.62.159-.177.374-.266.645-.266Zm-.023.348a.33.33 0 0 0-.281.143.652.652 0 0 0-.107.395c0 .173.035.306.105.398.072.093.17.14.294.14a.332.332 0 0 0 .275-.128c.077-.094.115-.231.115-.411 0-.168-.034-.299-.102-.392a.347.347 0 0 0-.299-.145ZM7.682 3v2.249h-.446V3h.446ZM9.554 4.726a.752.752 0 0 1-.128.266c-.148.202-.36.303-.637.303-.25 0-.451-.079-.601-.237a.775.775 0 0 1-.169-.278 1.058 1.058 0 0 1-.063-.363c0-.244.07-.449.211-.615a.76.76 0 0 1 .609-.278.754.754 0 0 1 .735.516c.046.13.069.294.069.492H8.41c.004.082.017.15.038.205.06.147.175.22.345.22a.343.343 0 0 0 .203-.055.39.39 0 0 0 .129-.176h.429Zm-.429-.494a.544.544 0 0 0-.056-.201.334.334 0 0 0-.295-.171.328.328 0 0 0-.246.1.44.44 0 0 0-.115.272h.712ZM11.423 3.569v1.48c0 .131-.008.236-.025.315a.662.662 0 0 1-.085.215c-.129.205-.361.308-.695.308-.466 0-.72-.176-.764-.528h.449c.031.14.139.211.325.211.142 0 .24-.04.297-.12.044-.064.066-.166.066-.308l.002-.208a.56.56 0 0 1-.498.265.627.627 0 0 1-.503-.221c-.129-.151-.192-.353-.192-.608 0-.254.064-.458.191-.612a.644.644 0 0 1 .521-.238c.112 0 .205.021.28.063a.596.596 0 0 1 .206.211v-.225h.425Zm-.811.317a.315.315 0 0 0-.285.157.6.6 0 0 0-.078.32c0 .164.038.289.114.374a.323.323 0 0 0 .257.114.328.328 0 0 0 .3-.168.632.632 0 0 0 .077-.326c0-.158-.039-.28-.118-.366a.348.348 0 0 0-.267-.105ZM13.353 3.569v1.48c0 .131-.008.236-.025.315a.662.662 0 0 1-.085.215c-.129.205-.361.308-.695.308-.466 0-.72-.176-.764-.528h.449c.031.14.139.211.325.211.142 0 .24-.04.297-.12.044-.064.066-.166.066-.308l.002-.208a.56.56 0 0 1-.498.265.627.627 0 0 1-.503-.221c-.127-.15-.191-.352-.191-.606s.064-.458.191-.612a.644.644 0 0 1 .521-.238c.112 0 .205.021.28.063a.596.596 0 0 1 .206.211v-.227h.424Zm-.811.317a.315.315 0 0 0-.285.157.6.6 0 0 0-.078.32c0 .164.038.289.114.374a.323.323 0 0 0 .257.114.328.328 0 0 0 .3-.168.632.632 0 0 0 .077-.326c0-.158-.039-.28-.118-.366a.346.346 0 0 0-.267-.105ZM14.167 3v.401h-.447V3h.447Zm0 .572v1.677h-.447V3.572h.447ZM15.328 3.523a.79.79 0 0 1 .598.243c.153.16.229.373.229.64 0 .276-.082.496-.245.66a.807.807 0 0 1-.597.229c-.261 0-.47-.085-.624-.255-.148-.162-.221-.372-.221-.631 0-.254.072-.461.215-.62.159-.177.374-.266.645-.266Zm-.023.348a.33.33 0 0 0-.281.143.652.652 0 0 0-.106.395c0 .173.035.306.105.398.072.093.17.14.294.14a.332.332 0 0 0 .275-.128c.077-.094.115-.231.115-.411 0-.168-.034-.299-.102-.392a.35.35 0 0 0-.3-.145ZM13.985 11.795l1.811.633a.374.374 0 0 0 .435-.145l.407-.604a.3.3 0 0 0-.249-.468h-2.304a.301.301 0 0 0-.1.584ZM7.649 11.812h2.626v-.6H7.649a.3.3 0 0 0 0 .6ZM7.65 12.788h.375a.3.3 0 0 0 0-.601H7.65a.3.3 0 0 0 0 .601ZM17.325 13.649a3.67 3.67 0 0 0-1.681.407l-.72-1.156h-5.85l-.72 1.156A3.673 3.673 0 0 0 3 17.325 3.676 3.676 0 0 0 6.675 21a3.676 3.676 0 0 0 2.189-6.627l.403-.648 1.966 2.923a.975.975 0 1 0 1.649 1.014h.782a3.676 3.676 0 1 0 3.661-4.013ZM9.75 17.325a3.077 3.077 0 0 1-6.151 0 3.076 3.076 0 0 1 4.438-2.757L6.42 17.167a.302.302 0 0 0 .256.459c.104 0 .2-.054.254-.142l1.617-2.598a3.074 3.074 0 0 1 1.203 2.439Zm2.518-1.013a.976.976 0 0 0-.536 0L9.84 13.5h4.32l-1.892 2.812Zm1.391.75h-.702a.983.983 0 0 0-.19-.415l1.965-2.923.404.648a3.68 3.68 0 0 0-1.477 2.69Zm1.794-2.177 1.355 2.177h-2.547a3.07 3.07 0 0 1 1.192-2.177Zm1.872 5.515a3.076 3.076 0 0 1-3.057-2.738h2.561a.6.6 0 1 0 .496-.938l-.019.001-1.343-2.158a3.075 3.075 0 1 1 1.362 5.833Z" fill="#fff"/></g><defs><clipPath id="a"><path fill="#fff" d="M0 0h24v24H0z"/></clipPath></defs></svg>
